img/icons/social-media/twitter.svg

<?xml version="1.0" encoding="iso-8859-1"?>
<!-- Generator: Adobe Illustrator 18.0.0, SVG Export Plug-In . SVG Version: 6.00 Build 0)  -->
<!DOCTYPE svg PUBLIC "-//W3C//DTD SVG 1.1//EN" "http://www.w3.org/Graphics/SVG/1.1/DTD/svg11.dtd">
<svg version="1.1" id="Capa_1" xmlns="http://www.w3.org/2000/svg" xmlns:xlink="http://www.w3.org/1999/xlink" x="0px" y="0px"
	 viewBox="0 0 112.197 112.197" style="enable-background:new 0 0 112.197 112.197;" xml:space="preserve">
<g>
	<circle style="fill:#b3415e;" cx="56.099" cy="56.098" r="56.098"/>
	<g>
		<path style="fill:#F1F2F2;" d="M90.461,40.316c-2.404,1.066-4.99,1.787-7.702,2.109c2.769-1.659,4.894-4.284,5.897-7.417
			c-2.591,1.537-5.462,2.652-8.515,3.253c-2.446-2.605-5.931-4.233-9.79-4.233c-7.404,0-13.409,6.005-13.409,13.409
			c0,1.051,0.119,2.074,0.349,3.056c-11.144-0.559-21.025-5.897-27.639-14.012c-1.154,1.98-1.816,4.285-1.816,6.742
			c0,4.651,2.369,8.757,5.965,11.161c-2.197-0.069-4.266-0.672-6.073-1.679c-0.001,0.057-0.001,0.114-0.001,0.17
			c0,6.497,4.624,11.916,10.757,13.147c-1.124,0.308-2.311,0.471-3.532,0.471c-0.866,0-1.705-0.083-2.523-0.239
			c1.706,5.326,6.657,9.203,12.526,9.312c-4.59,3.597-10.371,5.74-16.655,5.74c-1.08,0-2.15-0.063-3.197-0.188
			c5.931,3.806,12.981,6.025,20.553,6.025c24.664,0,38.152-20.432,38.152-38.153c0-0.581-0.013-1.16-0.039-1.734
			C86.391,45.366,88.664,43.005,90.461,40.316L90.461,40.316z"/>
	</g>
</g>
<g>
</g>
<g>
</g>
<g>
</g>
<g>
</g>
<g>
</g>
<g>
</g>
<g>
</g>
<g>
</g>
<g>
</g>
<g>
</g>
<g>
</g>
<g>
</g>
<g>
</g>
<g>
</g>
<g>
</g>
</svg>

<?xml version="1.0" encoding="UTF-8"?>
<!DOCTYPE svg PUBLIC "-//W3C//DTD SVG 1.1//EN" "http://www.w3.org/Graphics/SVG/1.1/DTD/svg11.dtd">
<svg version="1.1" xmlns="http://www.w3.org/2000/svg" xmlns:xlink="http://www.w3.org/1999/xlink" x="0" y="0" width="112.197" height="112.197" viewBox="0, 0, 112.197, 112.197">
  <g id="Layer_1">
    <g>
      <g>
        <path d="M112.197,56.098 C112.197,87.08 87.081,112.196 56.099,112.196 C25.117,112.196 0.001,87.08 0.001,56.098 C0.001,25.116 25.117,0 56.099,0 C87.081,0 112.197,25.116 112.197,56.098 z" fill="#B3415E"/>
        <path d="M56.099,0 C87.081,0 112.197,25.116 112.197,56.098 C112.197,87.08 87.081,112.196 56.099,112.196 C25.117,112.196 0.001,87.08 0.001,56.098 C0.001,25.116 25.117,0 56.099,0 z M56.099,2.3 C26.387,2.3 2.301,26.386 2.301,56.098 C2.301,85.81 26.387,109.896 56.099,109.896 C85.811,109.896 109.897,85.81 109.897,56.098 C109.897,26.386 85.811,2.3 56.099,2.3 z" fill="#000000"/>
      </g>
      <path d="M90.461,40.316 C88.057,41.382 85.471,42.103 82.759,42.425 C85.528,40.766 87.653,38.141 88.656,35.008 C86.065,36.545 83.194,37.66 80.141,38.261 C77.695,35.656 74.21,34.028 70.351,34.028 C62.947,34.028 56.942,40.033 56.942,47.437 C56.942,48.488 57.061,49.511 57.291,50.493 C46.147,49.934 36.266,44.596 29.652,36.481 C28.498,38.461 27.836,40.766 27.836,43.223 C27.836,47.874 30.205,51.98 33.801,54.384 C31.604,54.315 29.535,53.712 27.728,52.705 C27.727,52.762 27.727,52.819 27.727,52.875 C27.727,59.372 32.351,64.791 38.484,66.022 C37.36,66.33 36.173,66.493 34.952,66.493 C34.086,66.493 33.247,66.41 32.429,66.254 C34.135,71.58 39.086,75.457 44.955,75.566 C40.365,79.163 34.584,81.306 28.3,81.306 C27.22,81.306 26.15,81.243 25.103,81.118 C31.034,84.924 38.084,87.143 45.656,87.143 C70.32,87.143 83.808,66.711 83.808,48.99 C83.808,48.409 83.795,47.83 83.769,47.256 C86.391,45.366 88.664,43.005 90.461,40.316 L90.461,40.316 z" fill="#F1F2F2"/>
    </g>
  </g>
</svg>
